eos-qogir-icons/pkg/eos-qogir-icons/usr/share/icons/Qogir/symbolic/apps/gnome-power-manager-symbolic.svg

<svg width="16" height="16" enable-background="new" version="1.1" xmlns="http://www.w3.org/2000/svg">
 <path d="m10 1v1h-4v-1zm2 2c1 0 1 1 1 1v4.063c1.141 0.232 2 1.225 2 2.437v0.5h-1v2h-1v-2h-1v2h-1v-2h-1v-0.5c0-1.212 0.859-2.205 2-2.438v-4.062h-8v10h9c0 1-1 1-1 1h-8c-1 0-1-1-1-1v-10s0-1 1-1h2z" color="#000000" enable-background="accumulate" fill="#5d656b" overflow="visible"/>
 <path d="m11 5c1.0079 2.5482-1.9549 3.6683-2 5.5v1.5h1v1h-5v-8h2z" color="#000000" enable-background="accumulate" fill="#5d656b" opacity=".35" overflow="visible"/>
</svg>

<svg xmlns="http://www.w3.org/2000/svg" width="16" height="16" enable-background="new"><defs><filter id="a" color-interpolation-filters="sRGB"><feBlend mode="darken" in2="BackgroundImage"/></filter></defs><path style="marker:none" d="M10 1v1H6V1zm2 2c1 0 1 1 1 1v4.063c1.141.232 2 1.225 2 2.437v.5h-1v2h-1v-2h-1v2h-1v-2h-1v-.5c0-1.212.859-2.205 2-2.438V4H4v10h9c0 1-1 1-1 1H4c-1 0-1-1-1-1V4s0-1 1-1h2zm-1 2v2.563c-1.12.581-2 1.592-2 2.937V12h1v1H5V5h2z" color="#000" overflow="visible" fill="#5d656b" enable-background="accumulate"/></svg>
